public/bravos-icon-text.svg

<svg width="198" height="72" viewBox="0 0 198 72" fill="none" xmlns="http://www.w3.org/2000/svg">
<g filter="url(#filter0_d_6_45)">
<rect x="21.5022" y="33.7301" width="33.0344" height="6" rx="3" transform="rotate(-32.4603 21.5022 33.7301)" fill="#00447B"/>
</g>
<g filter="url(#filter1_d_6_45)">
<rect x="20.4193" y="3" width="36" height="6" rx="3" transform="rotate(23.7795 20.4193 3)" fill="#00447B"/>
</g>
<g filter="url(#filter2_d_6_45)">
<rect x="30.0879" y="3.37457" width="36" height="6" rx="3" transform="rotate(103.244 30.0879 3.37457)" fill="#00447B"/>
</g>
<g filter="url(#filter3_d_6_45)">
<rect x="13" y="59.3218" width="36" height="6" rx="3" transform="rotate(-32.4603 13 59.3218)" fill="#00447B"/>
</g>
<g filter="url(#filter4_d_6_45)">
<rect x="14.4193" y="27" width="36" height="6" rx="3" transform="rotate(23.7795 14.4193 27)" fill="#00447B"/>
</g>
<g filter="url(#filter5_d_6_45)">
<rect x="24.0879" y="27.3746" width="36" height="6" rx="3" transform="rotate(103.244 24.0879 27.3746)" fill="#00447B"/>
</g>
<g filter="url(#filter6_d_6_45)">
<path d="M55 56.4L57.4 55.8V30.2L55 29.6V29H65.6C70.1333 29 73.4 29.6933 75.4 31.08C77.4 32.44 78.4 34.3467 78.4 36.8C78.4 38.4533 77.96 39.8 77.08 40.84C76.2 41.8533 75.0667 42.6133 73.68 43.12C72.2133 43.68 70.6533 43.9733 69 44V44.2C69.9867 44.2533 70.8533 44.4 71.6 44.64C73.4667 45.2267 74.7333 46.28 75.4 47.8L79 55.8L81 56.4V57H75.4C73.2133 57 71.6133 55.8667 70.6 53.6L66.6 44.6H64V55.8L66.8 56.4V57H55V56.4ZM65.6 43.6C67.4667 43.6 68.9333 43.0133 70 41.84C71.0667 40.6667 71.6 38.9867 71.6 36.8C71.6 34.6133 71.0667 32.9333 70 31.76C68.9333 30.5867 67.4667 30 65.6 30H64V43.6H65.6ZM80.2078 56.4L83.4078 55.2L94.4078 28.6H95.6078L107.008 55.8L109.008 56.4V57H104.208C102.821 57 101.688 56.6933 100.808 56.08C99.9278 55.44 99.2745 54.6133 98.8478 53.6L96.8078 48.8H87.2478L84.6078 55.2L87.6078 56.4V57H80.2078V56.4ZM87.6478 47.8H96.4078L92.0078 37.28L87.6478 47.8ZM106.778 30.2L104.778 29.6V29H109.578C110.965 29 112.098 29.32 112.978 29.96C113.858 30.5733 114.525 31.3867 114.978 32.4L122.058 48.52L128.578 30.8L125.578 29.6V29H132.978V29.6L129.778 30.8L119.978 57.4H118.778L106.778 30.2ZM145.769 57.6C143.155 57.6 140.862 57.04 138.889 55.92C136.942 54.7733 135.435 53.1067 134.369 50.92C133.302 48.7333 132.769 46.0933 132.769 43C132.769 39.9067 133.302 37.2667 134.369 35.08C135.435 32.8933 136.942 31.24 138.889 30.12C140.862 28.9733 143.155 28.4 145.769 28.4C148.382 28.4 150.662 28.9733 152.609 30.12C154.582 31.24 156.102 32.8933 157.169 35.08C158.235 37.2667 158.769 39.9067 158.769 43C158.769 46.0933 158.235 48.7333 157.169 50.92C156.102 53.1067 154.582 54.7733 152.609 55.92C150.662 57.04 148.382 57.6 145.769 57.6ZM145.769 56.8C146.809 56.8 147.769 56.36 148.649 55.48C149.555 54.6 150.302 53.1333 150.889 51.08C151.475 49.0267 151.769 46.3333 151.769 43C151.769 39.6667 151.475 36.9733 150.889 34.92C150.302 32.8667 149.555 31.4 148.649 30.52C147.769 29.64 146.809 29.2 145.769 29.2C144.729 29.2 143.755 29.64 142.849 30.52C141.969 31.4 141.235 32.8667 140.649 34.92C140.062 36.9733 139.769 39.6667 139.769 43C139.769 46.3333 140.062 49.0267 140.649 51.08C141.235 53.1333 141.969 54.6 142.849 55.48C143.755 56.36 144.729 56.8 145.769 56.8ZM163.378 38.4C163.938 38.2133 164.498 37.9067 165.058 37.48C166.205 36.6267 166.911 35.4667 167.178 34L166.658 34.32C166.311 34.5067 165.885 34.6 165.378 34.6C164.578 34.6 163.871 34.3067 163.258 33.72C162.671 33.1067 162.378 32.4 162.378 31.6C162.378 30.8 162.671 30.1067 163.258 29.52C163.871 28.9067 164.578 28.6 165.378 28.6C166.311 28.6 167.071 28.9333 167.658 29.6C168.271 30.24 168.578 31.1067 168.578 32.2C168.578 34.6533 167.778 36.5733 166.178 37.96C165.485 38.6 164.685 39.08 163.778 39.4L163.378 38.4ZM182.183 57.6C180.289 57.6 178.516 57.1733 176.863 56.32C176.116 55.9467 175.489 55.5067 174.983 55C174.609 55.6133 174.143 56.16 173.583 56.64C173.103 56.9867 172.836 57.1733 172.783 57.2H171.783V49.6H173.383C173.783 50.9067 174.343 52.08 175.063 53.12C176.689 55.44 178.796 56.6 181.383 56.6C182.903 56.6 184.116 56.1467 185.023 55.24C185.929 54.3333 186.383 53.12 186.383 51.6C186.383 50.72 186.116 49.9333 185.583 49.24C185.076 48.5467 184.436 47.9333 183.663 47.4C182.889 46.8667 181.809 46.2 180.423 45.4C178.663 44.4133 177.236 43.52 176.143 42.72C175.049 41.92 174.116 40.92 173.343 39.72C172.569 38.4933 172.183 37.0533 172.183 35.4C172.183 34.0933 172.543 32.92 173.263 31.88C174.009 30.8133 175.116 29.9733 176.583 29.36C178.049 28.72 179.849 28.4 181.983 28.4C183.529 28.4 185.076 28.84 186.623 29.72C187.209 30.04 187.796 30.4667 188.383 31C188.836 30.3067 189.303 29.76 189.783 29.36C190.263 29.0133 190.529 28.8267 190.583 28.8H191.583V36.4H189.983C189.636 35.12 189.116 33.96 188.423 32.92C187.783 31.9067 186.983 31.0667 186.023 30.4C185.089 29.7333 184.009 29.4 182.783 29.4C181.743 29.4 180.849 29.8133 180.103 30.64C179.356 31.4667 178.983 32.52 178.983 33.8C178.983 34.7867 179.263 35.68 179.823 36.48C180.409 37.2533 181.116 37.9333 181.943 38.52C182.796 39.1067 183.943 39.8133 185.383 40.64C187.063 41.6 188.423 42.4533 189.463 43.2C190.503 43.9467 191.383 44.88 192.103 46C192.823 47.0933 193.183 48.36 193.183 49.8C193.183 51.24 192.769 52.56 191.943 53.76C191.116 54.9333 189.876 55.8667 188.223 56.56C186.569 57.2533 184.556 57.6 182.183 57.6Z" fill="#00447B"/>
</g>
<defs>
<filter id="filter0_d_6_45" x="18.6433" y="17.1411" width="36.8113" height="28.5106" filterUnits="userSpaceOnUse" color-interpolation-filters="sRGB">
<feFlood flood-opacity="0" result="BackgroundImageFix"/>
<feColorMatrix in="SourceAlpha" type="matrix" values="0 0 0 0 0 0 0 0 0 0 0 0 0 0 0 0 0 0 127 0" result="hardAlpha"/>
<feOffset dy="4"/>
<feGaussianBlur stdDeviation="2"/>
<feComposite in2="hardAlpha" operator="out"/>
<feColorMatrix type="matrix" values="0 0 0 0 0 0 0 0 0 0 0 0 0 0 0 0 0 0 0.25 0"/>
<feBlend mode="normal" in2="BackgroundImageFix" result="effect1_dropShadow_6_45"/>
<feBlend mode="normal" in="SourceGraphic" in2="effect1_dropShadow_6_45" result="shape"/>
</filter>
<filter id="filter1_d_6_45" x="14.9542" y="3.95421" width="41.4546" height="26.0981" filterUnits="userSpaceOnUse" color-interpolation-filters="sRGB">
<feFlood flood-opacity="0" result="BackgroundImageFix"/>
<feColorMatrix in="SourceAlpha" type="matrix" values="0 0 0 0 0 0 0 0 0 0 0 0 0 0 0 0 0 0 127 0" result="hardAlpha"/>
<feOffset dy="4"/>
<feGaussianBlur stdDeviation="2"/>
<feComposite in2="hardAlpha" operator="out"/>
<feColorMatrix type="matrix" values="0 0 0 0 0 0 0 0 0 0 0 0 0 0 0 0 0 0 0.25 0"/>
<feBlend mode="normal" in2="BackgroundImageFix" result="effect1_dropShadow_6_45"/>
<feBlend mode="normal" in="SourceGraphic" in2="effect1_dropShadow_6_45" result="shape"/>
</filter>
<filter id="filter2_d_6_45" x="12.6068" y="2.60682" width="20.8743" height="43.2035" filterUnits="userSpaceOnUse" color-interpolation-filters="sRGB">
<feFlood flood-opacity="0" result="BackgroundImageFix"/>
<feColorMatrix in="SourceAlpha" type="matrix" values="0 0 0 0 0 0 0 0 0 0 0 0 0 0 0 0 0 0 127 0" result="hardAlpha"/>
<feOffset dy="4"/>
<feGaussianBlur stdDeviation="2"/>
<feComposite in2="hardAlpha" operator="out"/>
<feColorMatrix type="matrix" values="0 0 0 0 0 0 0 0 0 0 0 0 0 0 0 0 0 0 0.25 0"/>
<feBlend mode="normal" in2="BackgroundImageFix" result="effect1_dropShadow_6_45"/>
<feBlend mode="normal" in="SourceGraphic" in2="effect1_dropShadow_6_45" result="shape"/>
</filter>
<filter id="filter3_d_6_45" x="10.1411" y="41.1411" width="39.3136" height="30.1022" filterUnits="userSpaceOnUse" color-interpolation-filters="sRGB">
<feFlood flood-opacity="0" result="BackgroundImageFix"/>
<feColorMatrix in="SourceAlpha" type="matrix" values="0 0 0 0 0 0 0 0 0 0 0 0 0 0 0 0 0 0 127 0" result="hardAlpha"/>
<feOffset dy="4"/>
<feGaussianBlur stdDeviation="2"/>
<feComposite in2="hardAlpha" operator="out"/>
<feColorMatrix type="matrix" values="0 0 0 0 0 0 0 0 0 0 0 0 0 0 0 0 0 0 0.25 0"/>
<feBlend mode="normal" in2="BackgroundImageFix" result="effect1_dropShadow_6_45"/>
<feBlend mode="normal" in="SourceGraphic" in2="effect1_dropShadow_6_45" result="shape"/>
</filter>
<filter id="filter4_d_6_45" x="8.95422" y="27.9542" width="41.4546" height="26.0981" filterUnits="userSpaceOnUse" color-interpolation-filters="sRGB">
<feFlood flood-opacity="0" result="BackgroundImageFix"/>
<feColorMatrix in="SourceAlpha" type="matrix" values="0 0 0 0 0 0 0 0 0 0 0 0 0 0 0 0 0 0 127 0" result="hardAlpha"/>
<feOffset dy="4"/>
<feGaussianBlur stdDeviation="2"/>
<feComposite in2="hardAlpha" operator="out"/>
<feColorMatrix type="matrix" values="0 0 0 0 0 0 0 0 0 0 0 0 0 0 0 0 0 0 0.25 0"/>
<feBlend mode="normal" in2="BackgroundImageFix" result="effect1_dropShadow_6_45"/>
<feBlend mode="normal" in="SourceGraphic" in2="effect1_dropShadow_6_45" result="shape"/>
</filter>
<filter id="filter5_d_6_45" x="6.60681" y="26.6068" width="20.8743" height="43.2035" filterUnits="userSpaceOnUse" color-interpolation-filters="sRGB">
<feFlood flood-opacity="0" result="BackgroundImageFix"/>
<feColorMatrix in="SourceAlpha" type="matrix" values="0 0 0 0 0 0 0 0 0 0 0 0 0 0 0 0 0 0 127 0" result="hardAlpha"/>
<feOffset dy="4"/>
<feGaussianBlur stdDeviation="2"/>
<feComposite in2="hardAlpha" operator="out"/>
<feColorMatrix type="matrix" values="0 0 0 0 0 0 0 0 0 0 0 0 0 0 0 0 0 0 0.25 0"/>
<feBlend mode="normal" in2="BackgroundImageFix" result="effect1_dropShadow_6_45"/>
<feBlend mode="normal" in="SourceGraphic" in2="effect1_dropShadow_6_45" result="shape"/>
</filter>
<filter id="filter6_d_6_45" x="51" y="28.4" width="146.183" height="37.2" filterUnits="userSpaceOnUse" color-interpolation-filters="sRGB">
<feFlood flood-opacity="0" result="BackgroundImageFix"/>
<feColorMatrix in="SourceAlpha" type="matrix" values="0 0 0 0 0 0 0 0 0 0 0 0 0 0 0 0 0 0 127 0" result="hardAlpha"/>
<feOffset dy="4"/>
<feGaussianBlur stdDeviation="2"/>
<feComposite in2="hardAlpha" operator="out"/>
<feColorMatrix type="matrix" values="0 0 0 0 0 0 0 0 0 0 0 0 0 0 0 0 0 0 0.25 0"/>
<feBlend mode="normal" in2="BackgroundImageFix" result="effect1_dropShadow_6_45"/>
<feBlend mode="normal" in="SourceGraphic" in2="effect1_dropShadow_6_45" result="shape"/>
</filter>
</defs>
</svg>

<svg width="198" height="72" fill="none" xmlns="http://www.w3.org/2000/svg"><g filter="url(#a)"><rect x="21.502" y="33.73" width="33.034" height="6" rx="3" transform="rotate(-32.46 21.502 33.73)" fill="#00447B"/></g><g filter="url(#b)"><rect x="20.419" y="3" width="36" height="6" rx="3" transform="rotate(23.78 20.42 3)" fill="#00447B"/></g><g filter="url(#c)"><rect x="30.088" y="3.375" width="36" height="6" rx="3" transform="rotate(103.244 30.088 3.375)" fill="#00447B"/></g><g filter="url(#d)"><rect x="13" y="59.322" width="36" height="6" rx="3" transform="rotate(-32.46 13 59.322)" fill="#00447B"/></g><g filter="url(#e)"><rect x="14.419" y="27" width="36" height="6" rx="3" transform="rotate(23.78 14.42 27)" fill="#00447B"/></g><g filter="url(#f)"><rect x="24.088" y="27.375" width="36" height="6" rx="3" transform="rotate(103.244 24.088 27.375)" fill="#00447B"/></g><g filter="url(#g)"><path d="m55 56.4 2.4-.6V30.2l-2.4-.6V29h10.6c4.533 0 7.8.693 9.8 2.08 2 1.36 3 3.267 3 5.72 0 1.653-.44 3-1.32 4.04-.88 1.013-2.013 1.773-3.4 2.28-1.467.56-3.027.853-4.68.88v.2c.987.053 1.853.2 2.6.44 1.867.587 3.133 1.64 3.8 3.16l3.6 8 2 .6v.6h-5.6c-2.187 0-3.787-1.133-4.8-3.4l-4-9H64v11.2l2.8.6v.6H55v-.6Zm10.6-12.8c1.867 0 3.333-.587 4.4-1.76 1.067-1.173 1.6-2.853 1.6-5.04s-.533-3.867-1.6-5.04C68.933 30.587 67.467 30 65.6 30H64v13.6h1.6Zm14.608 12.8 3.2-1.2 11-26.6h1.2l11.4 27.2 2 .6v.6h-4.8c-1.387 0-2.52-.307-3.4-.92a5.782 5.782 0 0 1-1.96-2.48l-2.04-4.8h-9.56l-2.64 6.4 3 1.2v.6h-7.4v-.6Zm7.44-8.6h8.76l-4.4-10.52-4.36 10.52Zm19.13-17.6-2-.6V29h4.8c1.387 0 2.52.32 3.4.96a5.792 5.792 0 0 1 2 2.44l7.08 16.12 6.52-17.72-3-1.2V29h7.4v.6l-3.2 1.2-9.8 26.6h-1.2l-12-27.2Zm38.991 27.4c-2.614 0-4.907-.56-6.88-1.68-1.947-1.147-3.454-2.813-4.52-5-1.067-2.187-1.6-4.827-1.6-7.92s.533-5.733 1.6-7.92c1.066-2.187 2.573-3.84 4.52-4.96 1.973-1.147 4.266-1.72 6.88-1.72 2.613 0 4.893.573 6.84 1.72 1.973 1.12 3.493 2.773 4.56 4.96 1.066 2.187 1.6 4.827 1.6 7.92s-.534 5.733-1.6 7.92c-1.067 2.187-2.587 3.853-4.56 5-1.947 1.12-4.227 1.68-6.84 1.68Zm0-.8c1.04 0 2-.44 2.88-1.32.906-.88 1.653-2.347 2.24-4.4.586-2.053.88-4.747.88-8.08s-.294-6.027-.88-8.08c-.587-2.053-1.334-3.52-2.24-4.4-.88-.88-1.84-1.32-2.88-1.32-1.04 0-2.014.44-2.92 1.32-.88.88-1.614 2.347-2.2 4.4-.587 2.053-.88 4.747-.88 8.08s.293 6.027.88 8.08c.586 2.053 1.32 3.52 2.2 4.4.906.88 1.88 1.32 2.92 1.32Zm17.609-18.4c.56-.187 1.12-.493 1.68-.92 1.147-.853 1.853-2.013 2.12-3.48l-.52.32c-.347.187-.773.28-1.28.28-.8 0-1.507-.293-2.12-.88-.587-.613-.88-1.32-.88-2.12s.293-1.493.88-2.08c.613-.613 1.32-.92 2.12-.92.933 0 1.693.333 2.28 1 .613.64.92 1.507.92 2.6 0 2.453-.8 4.373-2.4 5.76a6.863 6.863 0 0 1-2.4 1.44l-.4-1Zm18.805 19.2a11.43 11.43 0 0 1-5.32-1.28c-.747-.373-1.374-.813-1.88-1.32a6.84 6.84 0 0 1-1.4 1.64c-.48.347-.747.533-.8.56h-1v-7.6h1.6c.4 1.307.96 2.48 1.68 3.52 1.626 2.32 3.733 3.48 6.32 3.48 1.52 0 2.733-.453 3.64-1.36.906-.907 1.36-2.12 1.36-3.64 0-.88-.267-1.667-.8-2.36a7.921 7.921 0 0 0-1.92-1.84c-.774-.533-1.854-1.2-3.24-2-1.76-.987-3.187-1.88-4.28-2.68-1.094-.8-2.027-1.8-2.8-3-.774-1.227-1.16-2.667-1.16-4.32 0-1.307.36-2.48 1.08-3.52.746-1.067 1.853-1.907 3.32-2.52 1.466-.64 3.266-.96 5.4-.96 1.546 0 3.093.44 4.64 1.32.586.32 1.173.747 1.76 1.28.453-.693.92-1.24 1.4-1.64.48-.347.746-.533.8-.56h1v7.6h-1.6a11.788 11.788 0 0 0-1.56-3.48 8.663 8.663 0 0 0-2.4-2.52c-.934-.667-2.014-1-3.24-1-1.04 0-1.934.413-2.68 1.24-.747.827-1.12 1.88-1.12 3.16 0 .987.28 1.88.84 2.68a9.623 9.623 0 0 0 2.12 2.04c.853.587 2 1.293 3.44 2.12 1.68.96 3.04 1.813 4.08 2.56 1.04.747 1.92 1.68 2.64 2.8.72 1.093 1.08 2.36 1.08 3.8s-.414 2.76-1.24 3.96c-.827 1.173-2.067 2.107-3.72 2.8-1.654.693-3.667 1.04-6.04 1.04Z" fill="#00447B"/></g><defs><filter id="a" x="18.643" y="17.141" width="36.811" height="28.511" filterUnits="userSpaceOnUse" color-interpolation-filters="sRGB"><feFlood flood-opacity="0" result="BackgroundImageFix"/><feColorMatrix in="SourceAlpha" values="0 0 0 0 0 0 0 0 0 0 0 0 0 0 0 0 0 0 127 0" result="hardAlpha"/><feOffset dy="4"/><feGaussianBlur stdDeviation="2"/><feComposite in2="hardAlpha" operator="out"/><feColorMatrix values="0 0 0 0 0 0 0 0 0 0 0 0 0 0 0 0 0 0 0.25 0"/><feBlend in2="BackgroundImageFix" result="effect1_dropShadow_6_45"/><feBlend in="SourceGraphic" in2="effect1_dropShadow_6_45" result="shape"/></filter><filter id="b" x="14.954" y="3.954" width="41.455" height="26.098" filterUnits="userSpaceOnUse" color-interpolation-filters="sRGB"><feFlood flood-opacity="0" result="BackgroundImageFix"/><feColorMatrix in="SourceAlpha" values="0 0 0 0 0 0 0 0 0 0 0 0 0 0 0 0 0 0 127 0" result="hardAlpha"/><feOffset dy="4"/><feGaussianBlur stdDeviation="2"/><feComposite in2="hardAlpha" operator="out"/><feColorMatrix values="0 0 0 0 0 0 0 0 0 0 0 0 0 0 0 0 0 0 0.25 0"/><feBlend in2="BackgroundImageFix" result="effect1_dropShadow_6_45"/><feBlend in="SourceGraphic" in2="effect1_dropShadow_6_45" result="shape"/></filter><filter id="c" x="12.607" y="2.607" width="20.874" height="43.203" filterUnits="userSpaceOnUse" color-interpolation-filters="sRGB"><feFlood flood-opacity="0" result="BackgroundImageFix"/><feColorMatrix in="SourceAlpha" values="0 0 0 0 0 0 0 0 0 0 0 0 0 0 0 0 0 0 127 0" result="hardAlpha"/><feOffset dy="4"/><feGaussianBlur stdDeviation="2"/><feComposite in2="hardAlpha" operator="out"/><feColorMatrix values="0 0 0 0 0 0 0 0 0 0 0 0 0 0 0 0 0 0 0.25 0"/><feBlend in2="BackgroundImageFix" result="effect1_dropShadow_6_45"/><feBlend in="SourceGraphic" in2="effect1_dropShadow_6_45" result="shape"/></filter><filter id="d" x="10.141" y="41.141" width="39.314" height="30.102" filterUnits="userSpaceOnUse" color-interpolation-filters="sRGB"><feFlood flood-opacity="0" result="BackgroundImageFix"/><feColorMatrix in="SourceAlpha" values="0 0 0 0 0 0 0 0 0 0 0 0 0 0 0 0 0 0 127 0" result="hardAlpha"/><feOffset dy="4"/><feGaussianBlur stdDeviation="2"/><feComposite in2="hardAlpha" operator="out"/><feColorMatrix values="0 0 0 0 0 0 0 0 0 0 0 0 0 0 0 0 0 0 0.25 0"/><feBlend in2="BackgroundImageFix" result="effect1_dropShadow_6_45"/><feBlend in="SourceGraphic" in2="effect1_dropShadow_6_45" result="shape"/></filter><filter id="e" x="8.954" y="27.954" width="41.455" height="26.098" filterUnits="userSpaceOnUse" color-interpolation-filters="sRGB"><feFlood flood-opacity="0" result="BackgroundImageFix"/><feColorMatrix in="SourceAlpha" values="0 0 0 0 0 0 0 0 0 0 0 0 0 0 0 0 0 0 127 0" result="hardAlpha"/><feOffset dy="4"/><feGaussianBlur stdDeviation="2"/><feComposite in2="hardAlpha" operator="out"/><feColorMatrix values="0 0 0 0 0 0 0 0 0 0 0 0 0 0 0 0 0 0 0.25 0"/><feBlend in2="BackgroundImageFix" result="effect1_dropShadow_6_45"/><feBlend in="SourceGraphic" in2="effect1_dropShadow_6_45" result="shape"/></filter><filter id="f" x="6.607" y="26.607" width="20.874" height="43.203" filterUnits="userSpaceOnUse" color-interpolation-filters="sRGB"><feFlood flood-opacity="0" result="BackgroundImageFix"/><feColorMatrix in="SourceAlpha" values="0 0 0 0 0 0 0 0 0 0 0 0 0 0 0 0 0 0 127 0" result="hardAlpha"/><feOffset dy="4"/><feGaussianBlur stdDeviation="2"/><feComposite in2="hardAlpha" operator="out"/><feColorMatrix values="0 0 0 0 0 0 0 0 0 0 0 0 0 0 0 0 0 0 0.25 0"/><feBlend in2="BackgroundImageFix" result="effect1_dropShadow_6_45"/><feBlend in="SourceGraphic" in2="effect1_dropShadow_6_45" result="shape"/></filter><filter id="g" x="51" y="28.4" width="146.183" height="37.2" filterUnits="userSpaceOnUse" color-interpolation-filters="sRGB"><feFlood flood-opacity="0" result="BackgroundImageFix"/><feColorMatrix in="SourceAlpha" values="0 0 0 0 0 0 0 0 0 0 0 0 0 0 0 0 0 0 127 0" result="hardAlpha"/><feOffset dy="4"/><feGaussianBlur stdDeviation="2"/><feComposite in2="hardAlpha" operator="out"/><feColorMatrix values="0 0 0 0 0 0 0 0 0 0 0 0 0 0 0 0 0 0 0.25 0"/><feBlend in2="BackgroundImageFix" result="effect1_dropShadow_6_45"/><feBlend in="SourceGraphic" in2="effect1_dropShadow_6_45" result="shape"/></filter></defs></svg>
